symbolic/24x24/mimetypes/text-x-octave.svg

<svg xmlns="http://www.w3.org/2000/svg" width="24" height="24" version="1.1">
 <path style="opacity:0.2" d="m 5,2.5 c -0.554,0 -1,0.446 -1,1 v 18 c 0,0.554 0.446,1 1,1 h 14 c 0.554,0 1,-0.446 1,-1 V 8.5 L 14.5,8 14,2.5 Z"/>
 <path style="fill:#e47234" d="M 5,2 C 4.446,2 4,2.446 4,3 V 21 C 4,21.554 4.446,22 5,22 H 19 C 19.554,22 20,21.554 20,21 V 8 L 14.5,7.5 14,2 Z"/>
 <path style="fill:#ffffff;opacity:0.5" d="M 12.5,9 A 5.5,5.5 0 0 0 7,14.5 5.5,5.5 0 0 0 12.5,20 5.5,5.5 0 0 0 18,14.5 5.5,5.5 0 0 0 12.5,9 Z M 13,10 A 4,4 0 0 1 17,14 4,4 0 0 1 13,18 4,4 0 0 1 9,14 4,4 0 0 1 13,10 Z"/>
 <path style="opacity:0.2;fill:#ffffff" d="M 5,2 C 4.446,2 4,2.446 4,3 V 3.5 C 4,2.946 4.446,2.5 5,2.5 H 14 V 2 Z"/>
 <path style="opacity:0.2" d="m 14,2.5 v 5 c 0,0.5525 0.448,1 1,1 h 5 z"/>
 <path style="fill:#efaa85" d="M 14,2 V 7 C 14,7.5525 14.448,8 15,8 H 20 Z"/>
 <path style="opacity:0.2" d="M 14.400391,9.5 C 14.178791,9.5 14,9.6787906 14,9.9003906 V 11.099609 C 14,11.321209 14.178791,11.5 14.400391,11.5 h 1.199218 C 15.821209,11.5 16,11.321209 16,11.099609 V 9.9003906 C 16,9.6787906 15.821209,9.5 15.599609,9.5 Z M 6.8007812,13 C 6.3575812,13 6,13.357581 6,13.800781 v 2.398438 C 6,16.642419 6.3575812,17 6.8007812,17 H 9.1992188 C 9.6424188,17 10,16.642419 10,16.199219 V 13.800781 C 10,13.357581 9.6424188,13 9.1992188,13 Z m 8.7988278,3.5 C 15.267209,16.5 15,16.767209 15,17.099609 v 1.800782 C 15,19.232791 15.267209,19.5 15.599609,19.5 h 1.800782 C 17.732791,19.5 18,19.232791 18,18.900391 V 17.099609 C 18,16.767209 17.732791,16.5 17.400391,16.5 Z"/>
 <path style="fill:#ffffff" d="M 14.400391 9 C 14.178791 9 14 9.1787906 14 9.4003906 L 14 10.599609 C 14 10.821209 14.178791 11 14.400391 11 L 15.599609 11 C 15.821209 11 16 10.821209 16 10.599609 L 16 9.4003906 C 16 9.1787906 15.821209 9 15.599609 9 L 14.400391 9 z M 6.8007812 12.5 C 6.3575812 12.5 6 12.857581 6 13.300781 L 6 15.699219 C 6 16.142419 6.3575812 16.5 6.8007812 16.5 L 9.1992188 16.5 C 9.6424188 16.5 10 16.142419 10 15.699219 L 10 13.300781 C 10 12.857581 9.6424188 12.5 9.1992188 12.5 L 6.8007812 12.5 z M 15.599609 16 C 15.267209 16 15 16.267209 15 16.599609 L 15 18.400391 C 15 18.732791 15.267209 19 15.599609 19 L 17.400391 19 C 17.732791 19 18 18.732791 18 18.400391 L 18 16.599609 C 18 16.267209 17.732791 16 17.400391 16 L 15.599609 16 z"/>
</svg>

<svg xmlns="http://www.w3.org/2000/svg" width="24" height="24"><path style="opacity:.2" d="M5 2.5c-.554 0-1 .446-1 1v18c0 .554.446 1 1 1h14c.554 0 1-.446 1-1v-13L14.5 8 14 2.5z"/><path style="fill:#e47234" d="M5 2c-.554 0-1 .446-1 1v18c0 .554.446 1 1 1h14c.554 0 1-.446 1-1V8l-5.5-.5L14 2z"/><path style="fill:#fff;opacity:.5" d="M12.5 9A5.5 5.5 0 0 0 7 14.5a5.5 5.5 0 0 0 5.5 5.5 5.5 5.5 0 0 0 5.5-5.5A5.5 5.5 0 0 0 12.5 9zm.5 1a4 4 0 0 1 4 4 4 4 0 0 1-4 4 4 4 0 0 1-4-4 4 4 0 0 1 4-4z"/><path style="opacity:.2;fill:#fff" d="M5 2c-.554 0-1 .446-1 1v.5c0-.554.446-1 1-1h9V2z"/><path style="opacity:.2" d="M14 2.5v5a1 1 0 0 0 1 1h5z"/><path style="fill:#efaa85" d="M14 2v5a1 1 0 0 0 1 1h5z"/><path style="opacity:.2" d="M14.4 9.5a.4.4 0 0 0-.4.4v1.2a.4.4 0 0 0 .4.4h1.2a.4.4 0 0 0 .4-.4V9.9a.4.4 0 0 0-.4-.4zM6.8 13a.8.8 0 0 0-.8.8v2.4a.8.8 0 0 0 .8.8h2.4a.8.8 0 0 0 .8-.8v-2.4a.8.8 0 0 0-.8-.8zm8.8 3.5c-.333 0-.6.267-.6.6v1.8c0 .333.267.6.6.6h1.8c.333 0 .6-.267.6-.6v-1.8c0-.333-.267-.6-.6-.6z"/><path style="fill:#fff" d="M14.4 9a.4.4 0 0 0-.4.4v1.2a.4.4 0 0 0 .4.4h1.2a.4.4 0 0 0 .4-.4V9.4a.4.4 0 0 0-.4-.4h-1.2zm-7.6 3.5a.8.8 0 0 0-.8.8v2.4a.8.8 0 0 0 .8.8h2.4a.8.8 0 0 0 .8-.8v-2.4a.8.8 0 0 0-.8-.8H6.8zm8.8 3.5c-.333 0-.6.267-.6.6v1.8c0 .333.267.6.6.6h1.8c.333 0 .6-.267.6-.6v-1.8c0-.333-.267-.6-.6-.6h-1.8z"/></svg>
